X:1
T:As the Life of a Flower
T:As the Life of a Flower
T:George Henry Ramsey
T:Laura Emeline Pixley Newell, 1907
T:Public Domain Courtesy of the Cyber Hymnal™
T:Public Domain Courtesy of the Cyber Hymnal™
C:George Henry Ramsey
Z:Public Domain
Z:Courtesy of the Cyber Hymnal™
%%score ( 1 2 ) ( 3 4 )
L:1/8
Q:1/4=93
M:4/4
K:Bb
V:1 treble 
V:2 treble 
V:3 bass 
V:4 bass 
V:1
 [B,D]>[CE] | [DF]2 [DF]>[^C=E] [DF]2 [B,D]>[=C_E] | %2
w: 1.~As the|life of a flower, As a|
w: 2.~As the|life of a flower, Be our|
w: 3.~While we|tar- ry be- low Let us|
 [DF]2 [DF]>[^C=E] [DF]2 [FB]>[F=c] [Fd]2 [Fd]>[E^c] [Fd]2 [F=c]>[FB] | %3
w: breath or a sigh, So the years that we live As a|
w: lives pure and sweet; May we bright- en the way For the|
w: trust and a- dore Him who leads us each day Tow’rd the|
 [Gc]2 [GB]>[EG] [DF]2 [B,D]>[CE] | [DF]2 [DF]>[^C=E] [DF]2 | [B,D]>[CE] | %6
w: dream hast- en by; True, to-|day we are here,|But to-|
w: friends that we greet; And sweet|in- cense a- rise,|From our|
w: ra- di- ant shore Where the|sun ne- ver sets,|And the|
 [DF]2 [DF]>[^C=E] [DF]2 [FB]>[F^c] | [Fd]2 [Fd]>[=E^c] [Fd]2 [G_e]>[Ge] | %8
w: mor- row may see Just a|grave in the vale, And a|
w: hearts as we live Close to|Him who doth teach Us to|
w: flowers ne- ver fade, Where no|sor- row or death May its|
 [Fd]2 [Ec]>[Ec] !fermata![DB]2 ||"^Refrain" [DB]>[Ec] | [Fd]6 [Fd]>[Ec] | [DB]6 [FB]>[FA] | %12
w: mem- ory of me.||||
w: love and for- give.|As the|life of a|flower, As a|
w: bor- ders in- vade.||||
 [EG]6 [EG]>[EG] | [DF]6 [DF]>[DF] | [DB]6 [FB]>[Fc] | [Fd]6 [Ge]>[Ge] | [Fd]6 [Ec]>[Ec] | B6 |] %18
w: ||||||
w: breath, or a|sigh, So the|years glide a-|way, And a-|las, we must|die.|
w: ||||||
V:2
 x2 | x8 | x16 | x8 | x6 | x2 | x8 | x8 | x6 || x2 | x8 | x8 | x8 | x8 | x8 | x8 | x8 | %17
 (D2 E>E D2) |] %18
V:3
 [B,,F,]>[B,,F,] | [B,,B,]2 [B,,B,]>[B,,B,] [B,,B,]2 [B,,F,]>[B,,F,] | %2
w: ~ ~|~ ~ ~ ~ ~ ~|
 [B,,B,]2 [B,,B,]>[B,,B,] [B,,B,]2 [D,B,]>[F,A,] B,2 B,>B, B,2 [D,B,]>[D,B,] | %3
w: ~ ~ ~ ~ ~ ~ ~ ~ ~ ~ ~ ~|
 [E,B,]2 [E,B,]>[E,B,] [B,,B,]2 [B,,F,]>[B,,F,] | [B,,B,]2 [B,,B,]>[B,,B,] [B,,B,]2 | %5
w: ~ ~ ~ ~ ~ ~|~ ~ ~ ~|
 [B,,F,]>[B,,F,] | [B,,B,]2 [B,,B,]>[B,,B,] [B,,B,]2 [D,B,]>[F,A,] | B,2 B,>B, B,2 [F,B,]>[F,B,] | %8
w: ~ ~|~ ~ ~ ~ ~ ~|~ ~ ~ ~ ~ ~|
 [F,B,]2 [F,A,]>[F,A,] !fermata![B,,B,]2 || [B,,F,]>[B,,F,] | %10
w: ~ ~ ~ ~|~ ~|
 [B,,B,]2 [B,,B,]>[B,,B,] [B,,B,]2 B,>[F,A,] | [G,B,]2 [G,B,]>[G,B,] [G,B,]2 [D,B,]>[D,B,] | %12
w: ~ As the life ~ ~|~ of a flower ~ ~|
 [E,B,]2 [E,B,]>[E,B,] [E,B,]2 [E,B,]>[E,B,] | [B,,B,]2 [B,,B,]>[B,,B,] [B,,B,]2 [B,,B,]>[B,,B,] | %14
w: ~ As a breath ~ ~|~ or a sigh, ~ ~|
 [B,,F,]2 [B,,F,]>[B,,F,] [B,,B,]2 [D,B,]>[F,A,] | %15
w: ~ So the years ~ ~|
 [B,,B,]2 [B,,B,]>[B,,B,] [B,,B,]2 [E,B,]>[E,B,] | [F,B,]2 [F,B,]>[F,B,] [F,B,]2 [F,A,]>[F,A,] | %17
w: ~ glide a- way, ~ ~|~ And a- las, ~ ~|
 B,2 G,>_G, F,2 |] %18
w: ~ we must die.|
V:4
 x2 | x8 | x8 B,2 B,>B, B,2 x2 | x8 | x6 | x2 | x8 | B,2 B,>B, B,2 x2 | x6 || x2 | x6 B,3/2 x/ | %11
 x8 | x8 | x8 | x8 | x8 | x8 | B,,6 |] %18

